X:1
T:Title
%%score { ( 1 3 ) | ( 2 4 ) }
L:1/8
M:3/4
K:G
V:1 treble nm="Grand Piano"
V:3 treble 
V:2 bass 
V:4 bass 
V:1
 z2 z2[Q:1/4=94] [G,B,]>[A,C] | [B,D]3 [DB] [CDA]>[B,DG] | G2 F2 F>G | [FA]3 [Ac] [GB]>[F_B] | %4
[M:2/4] [GB]4 |[M:1/4] [B,D]>[_B,^C] |[M:3/4] [B,D]3 [DB] [DA][DG] | [DG]2 [DF]2 [EA][EB] | %8
 [Ec]F B2 A2 |[M:2/4] [G,B,G]4 |[M:1/4] B>c |[M:3/4] d4 z2 | d2 c2 A>B | c4 z2 |[M:2/4] B4 | %15
[M:1/4] [^DB]>[FA] |[M:3/4] [EG]3 [EG] [EA][EB] | [Ec] [Ee]3 [=Fd][Ec] | [DB][EG] D2 A2 | %19
[M:2/4] [B,G]4 |] %20
V:2
 z2 z2 [G,,D,]>[G,,D,] | [G,,G,]3 [G,,G,] G,,>G,, | [D,B,D]2 [D,A,D]2 [D,A,D]>[D,B,D] | %3
 [D,C]3 [D,A,] [D,B,]>[D,C] |[M:2/4] [G,B,]4 |[M:1/4] [G,,G,]>[G,,E,] | %6
[M:3/4] [G,,D,]3 [G,,G,] [A,,F,][B,,G,] | [D,B,]2 [D,A,]2 [C,A,][B,,^G,] | %8
 [A,,A,][D,A,D] [D,G,D]2 [D,F,C]2 |[M:2/4] G,,4 |[M:1/4] G,>A, | %11
[M:3/4][K:treble] .[G,G]2 z2[K:bass] z2 | [A,B,E]2 [A,E]2 F,>G, | A,4 z2 |[M:2/4] [G,D]4 | %15
[M:1/4] [B,,F,]>[^D,B,] |[M:3/4] [E,B,]3 [D,B,] [C,A,][B,,^G,] | [A,,A,] [C,G,]3 [B,,^G,][C,A,] | %18
 [D,B,][D,C] [D,B,]2 [D,F,C]2 |[M:2/4] [G,,G,]4 |] %20
V:3
 x6 | x6 | x6 | x6 |[M:2/4] x4 |[M:1/4] x2 |[M:3/4] x6 | x6 | x6 |[M:2/4] x4 |[M:1/4] x2 | %11
[M:3/4] z G Ge [^Gd]>B | x6 | FF F[Fe] [Fd]>A |[M:2/4] x4 |[M:1/4] x2 |[M:3/4] x6 | x6 | x6 | %19
[M:2/4] x4 |] %20
V:4
 x6 | x6 | x6 | x6 |[M:2/4] x4 |[M:1/4] x2 |[M:3/4] x6 | x6 | x6 |[M:2/4] x4 |[M:1/4] x2 | %11
[M:3/4][K:treble] B,-[G,B,-] [G,B,][G,CG][K:bass] [E,B,]>[E,^G,E] | x6 | %13
 D,D, D,[D,C] [D,B,]>[D,F,D] |[M:2/4] x4 |[M:1/4] x2 |[M:3/4] x6 | x6 | x6 |[M:2/4] x4 |] %20

